src/main/resources/icons/GithubIcons/org/jetbrains/plugins/github/pullRequestDraft.svg

<svg width="16" height="16" viewBox="0 0 16 16" fill="none" xmlns="http://www.w3.org/2000/svg">
<path fill-rule="evenodd" clip-rule="evenodd" d="M6 3.75L9 0.75V2.8H10C11.6569 2.8 13 4.14315 13 5.8V11.2676C13.5978 11.6134 14 12.2597 14 13C14 14.1046 13.1046 15 12 15C10.8954 15 10 14.1046 10 13C10 12.2597 10.4022 11.6134 11 11.2676V5.8C11 5.24772 10.5523 4.8 10 4.8H9V6.75L6 3.75Z" fill="#9AA7B0" fill-opacity="0.8"/>
<path fill-rule="evenodd" clip-rule="evenodd" d="M2 4C2 2.89543 2.89543 2 4 2C5.10457 2 6 2.89543 6 4C6 4.74028 5.5978 5.38663 5 5.73244V11.2676C5.5978 11.6134 6 12.2597 6 13C6 14.1046 5.10457 15 4 15C2.89543 15 2 14.1046 2 13C2 12.2597 2.4022 11.6134 3 11.2676V5.73244C2.4022 5.38663 2 4.74028 2 4Z" fill="#9AA7B0" fill-opacity="0.8"/>
</svg>

<svg width="16" height="16" viewBox="0 0 16 16" fill="none" xmlns="http://www.w3.org/2000/svg"><rect id="frame" width="16" height="16" fill="none"/><path fill-rule="evenodd" clip-rule="evenodd" d="M6 3.75l3-3V2.8h1a3 3 0 0 1 3 3v5.468A2 2 0 0 1 12 15a2 2 0 0 1-1-3.732V5.8a1 1 0 0 0-1-1H9v1.95l-3-3z" fill="#9AA7B0" fill-opacity=".8"/><path fill-rule="evenodd" clip-rule="evenodd" d="M2 4a2 2 0 1 1 3 1.732v5.536A2 2 0 0 1 4 15a2 2 0 0 1-1-3.732V5.732A2 2 0 0 1 2 4z" fill="#9AA7B0" fill-opacity=".8"/></svg>
